assets/img/icons/monitoring.svg

<svg width="64" height="64" viewBox="0 0 64 64" xmlns="http://www.w3.org/2000/svg"><title>MONITORING</title><g fill="none" fill-rule="evenodd"><rect fill="#C4E1F7" y="4" width="64" height="45" rx="4"/><path d="M4 5c-1.103 0-2 .897-2 2v40c0 1.103.897 2 2 2h56c1.103 0 2-.897 2-2V7c0-1.103-.897-2-2-2H4zm56 46H4c-2.206 0-4-1.794-4-4V7c0-2.206 1.794-4 4-4h56c2.206 0 4 1.794 4 4v40c0 2.206-1.794 4-4 4z" fill="#1485E0"/><path fill="#1485E0" d="M40.042 60.287l-3-10 1.916-.574 3 10-1.916.574M23.958 60.287l-1.916-.574 3-10 1.916.574-3 10"/><path fill="#1485E0" d="M19 61h26v-2H19zM31 47h2v-2h-2zM6 41h52V9H6v32zm53 2H5a1 1 0 0 1-1-1V8a1 1 0 0 1 1-1h54a1 1 0 0 1 1 1v34a1 1 0 0 1-1 1z"/><path fill="#FFF" d="M6 9h52v32H6z"/><path d="M12.394 25C14.751 27.344 23.13 35 32 35c8.87 0 17.249-7.656 19.606-10C49.249 22.656 40.87 15 32 15c-8.87 0-17.249 7.656-19.606 10zM32 37c-11.312 0-21.319-10.865-21.74-11.327a1 1 0 0 1 0-1.346C10.681 23.865 20.688 13 32 13c11.313 0 21.319 10.865 21.74 11.327a1 1 0 0 1 0 1.346C53.319 26.135 43.313 37 32 37z" fill="#1485E0"/><path d="M20 25h2c0 5.514 4.486 10 10 10s10-4.486 10-10-4.486-10-10-10v-2c6.617 0 12 5.383 12 12s-5.383 12-12 12-12-5.383-12-12z" fill="#1485E0"/><path d="M26 25h-2c0-4.411 3.589-8 8-8v2c-3.309 0-6 2.691-6 6M32 33v-2c3.309 0 6-2.691 6-6h2c0 4.411-3.589 8-8 8" fill="#1485E0"/><circle fill="#C4E1F7" cx="32" cy="25" r="3"/><path d="M32 23c-1.103 0-2 .897-2 2s.897 2 2 2 2-.897 2-2-.897-2-2-2zm0 6c-2.206 0-4-1.794-4-4s1.794-4 4-4 4 1.794 4 4-1.794 4-4 4z" fill="#1485E0"/></g></svg>

<?xml version="1.0" encoding="UTF-8"?>
<svg width="64px" height="64px" viewBox="0 0 64 64" version="1.1" xmlns="http://www.w3.org/2000/svg" xmlns:xlink="http://www.w3.org/1999/xlink">
    <!-- Generator: Sketch 42 (36781) - http://www.bohemiancoding.com/sketch -->
    <title>MONITORING</title>
    <desc>Created with Sketch.</desc>
    <defs></defs>
    <g id="STYLEGUIDE" stroke="none" stroke-width="1" fill="none" fill-rule="evenodd">
        <g id="MONITORING">
            <rect id="Rectangle-6" fill="#C4E1F7" x="0" y="4" width="64" height="45" rx="4"></rect>
            <path d="M4,5 C2.897,5 2,5.897 2,7 L2,47 C2,48.103 2.897,49 4,49 L60,49 C61.103,49 62,48.103 62,47 L62,7 C62,5.897 61.103,5 60,5 L4,5 Z M60,51 L4,51 C1.794,51 0,49.206 0,47 L0,7 C0,4.794 1.794,3 4,3 L60,3 C62.206,3 64,4.794 64,7 L64,47 C64,49.206 62.206,51 60,51 L60,51 Z" id="Fill-645" fill="#1485E0"></path>
            <polyline id="Fill-646" fill="#1485E0" points="40.042 60.287 37.042 50.287 38.958 49.713 41.958 59.713 40.042 60.287"></polyline>
            <polyline id="Fill-647" fill="#1485E0" points="23.958 60.287 22.042 59.713 25.042 49.713 26.958 50.287 23.958 60.287"></polyline>
            <polygon id="Fill-648" fill="#1485E0" points="19 61 45 61 45 59 19 59"></polygon>
            <polygon id="Fill-649" fill="#1485E0" points="31 47 33 47 33 45 31 45"></polygon>
            <path d="M6,41 L58,41 L58,9 L6,9 L6,41 Z M59,43 L5,43 C4.447,43 4,42.553 4,42 L4,8 C4,7.447 4.447,7 5,7 L59,7 C59.553,7 60,7.447 60,8 L60,42 C60,42.553 59.553,43 59,43 L59,43 Z" id="Fill-650" fill="#1485E0"></path>
            <rect id="Rectangle-7" fill="#FFFFFF" x="6" y="9" width="52" height="32"></rect>
            <path d="M12.394,25 C14.751,27.344 23.13,35 32,35 C40.87,35 49.249,27.344 51.606,25 C49.249,22.656 40.87,15 32,15 C23.13,15 14.751,22.656 12.394,25 Z M32,37 C20.688,37 10.681,26.135 10.26,25.673 C9.913,25.291 9.913,24.709 10.26,24.327 C10.681,23.865 20.688,13 32,13 C43.313,13 53.319,23.865 53.74,24.327 C54.087,24.709 54.087,25.291 53.74,25.673 C53.319,26.135 43.313,37 32,37 L32,37 Z" id="Fill-651" fill="#1485E0"></path>
            <path d="M20,25 L22,25 C22,30.514 26.486,35 32,35 C37.514,35 42,30.514 42,25 C42,19.486 37.514,15 32,15 L32,13 C38.617,13 44,18.383 44,25 C44,31.617 38.617,37 32,37 C25.383,37 20,31.617 20,25 Z" id="Fill-652" fill="#1485E0"></path>
            <path d="M26,25 L24,25 C24,20.589 27.589,17 32,17 L32,19 C28.691,19 26,21.691 26,25" id="Fill-653" fill="#1485E0"></path>
            <path d="M32,33 L32,31 C35.309,31 38,28.309 38,25 L40,25 C40,29.411 36.411,33 32,33" id="Fill-654" fill="#1485E0"></path>
            <circle id="Oval-2" fill="#C4E1F7" cx="32" cy="25" r="3"></circle>
            <path d="M32,23 C30.897,23 30,23.897 30,25 C30,26.103 30.897,27 32,27 C33.103,27 34,26.103 34,25 C34,23.897 33.103,23 32,23 Z M32,29 C29.794,29 28,27.206 28,25 C28,22.794 29.794,21 32,21 C34.206,21 36,22.794 36,25 C36,27.206 34.206,29 32,29 L32,29 Z" id="Fill-655" fill="#1485E0"></path>
        </g>
    </g>
</svg>
